X: 26
T:Joan O'Neills #3
R:polka
Z:added by Alf 
M:2/4
L:1/16
K:A
| A2c2 E2F2|A4 A3f|e2c2 B2AB|e2c2 B2c2|\
A2c2 E2F2|A4 A3f|e2c2 B2AB|c2A2 A4:|
c2e2 c2e2|a4 a3f|e2c2 B2Ac|e2c2 B2A2|\
c2e2 c2e2|a4 a2f2|e2c2 B2AB|c2A2 A3B:|
